public/home/img/icon-twitter.svg

<svg height="223" viewBox="0 0 274 223" width="274" xmlns="http://www.w3.org/2000/svg" xmlns:xlink="http://www.w3.org/1999/xlink"><mask id="a" fill="#fff"><path d="m.06.822h273.33v222.118h-273.33" fill="#fff" fill-rule="evenodd"/></mask><path d="m85.98 223c-31.675 0-61.158-9.285-85.98-25.199 4.388.518 8.853.783 13.38.783 26.278 0 50.463-8.967 69.659-24.01-24.544-.453-45.258-16.669-52.395-38.953 3.424.655 6.938 1.006 10.552 1.006 5.116 0 10.071-.685 14.778-1.967-25.66-5.152-44.993-27.822-44.993-54.998 0-.236 0-.471.004-.705 7.563 4.201 16.211 6.724 25.406 7.015-15.05-10.058-24.953-27.226-24.953-46.685 0-10.279 2.766-19.914 7.594-28.198 27.664 33.934 68.993 56.264 115.609 58.603-.956-4.105-1.453-8.386-1.453-12.782 0-30.975 25.114-56.088 56.091-56.088 16.132 0 30.709 6.812 40.941 17.713 12.776-2.516 24.78-7.184 35.617-13.611-4.188 13.097-13.081 24.089-24.662 31.031 11.346-1.356 22.156-4.371 32.215-8.832-7.52 11.248-17.03 21.127-27.988 29.035.108 2.405.162 4.824.162 7.256 0 74.119-56.416 159.586-159.584 159.586" fill="#5e9fcb" fill-rule="evenodd" mask="url(#a)"/></svg>

<?xml version="1.0" encoding="UTF-8" standalone="no"?>
<svg width="274px" height="223px" viewBox="0 0 274 223" version="1.1" xmlns="http://www.w3.org/2000/svg" xmlns:xlink="http://www.w3.org/1999/xlink" xmlns:sketch="http://www.bohemiancoding.com/sketch/ns">
    <!-- Generator: Sketch 3.2.2 (9983) - http://www.bohemiancoding.com/sketch -->
    <title>Twitter_logo_blue</title>
    <desc>Created with Sketch.</desc>
    <defs>
        <path id="path-1" d="M0.06,0.822 L273.39,0.822 L273.39,222.94 L0.06,222.94"></path>
    </defs>
    <g id="Page-1" stroke="none" stroke-width="1" fill="none" fill-rule="evenodd" sketch:type="MSPage">
        <g id="Twitter_logo_blue" sketch:type="MSLayerGroup">
            <mask id="mask-2" sketch:name="Clip 2" fill="white">
                <use xlink:href="#path-1"></use>
            </mask>
            <g id="Clip-2"></g>
            <path d="M85.98,223 C54.305,223 24.822,213.715 0,197.801 C4.388,198.319 8.853,198.584 13.38,198.584 C39.658,198.584 63.843,189.617 83.039,174.574 C58.495,174.121 37.781,157.905 30.644,135.621 C34.068,136.276 37.582,136.627 41.196,136.627 C46.312,136.627 51.267,135.942 55.974,134.66 C30.314,129.508 10.981,106.838 10.981,79.662 C10.981,79.426 10.981,79.191 10.985,78.957 C18.548,83.158 27.196,85.681 36.391,85.972 C21.341,75.914 11.438,58.746 11.438,39.287 C11.438,29.008 14.204,19.373 19.032,11.089 C46.696,45.023 88.025,67.353 134.641,69.692 C133.685,65.587 133.188,61.306 133.188,56.91 C133.188,25.935 158.302,0.822 189.279,0.822 C205.411,0.822 219.988,7.634 230.22,18.535 C242.996,16.019 255,11.351 265.837,4.924 C261.649,18.021 252.756,29.013 241.175,35.955 C252.521,34.599 263.331,31.584 273.39,27.123 C265.87,38.371 256.36,48.25 245.402,56.158 C245.51,58.563 245.564,60.982 245.564,63.414 C245.564,137.533 189.148,223 85.98,223" id="Fill-1" fill="#5E9FCB" sketch:type="MSShapeGroup" mask="url(#mask-2)"></path>
        </g>
    </g>
</svg>
